sources/images/svg/radia.svg

<?xml version="1.0" encoding="UTF-8" standalone="no"?>
<svg width="107px" height="108px" viewBox="0 0 107 108" version="1.1" xmlns="http://www.w3.org/2000/svg" xmlns:xlink="http://www.w3.org/1999/xlink" xmlns:sketch="http://www.bohemiancoding.com/sketch/ns">
    <!-- Generator: Sketch 3.0.4 (8053) - http://www.bohemiancoding.com/sketch -->
    <title>radia</title>
    <desc>Created with Sketch.</desc>
    <defs></defs>
    <g id="Page-1" stroke="none" stroke-width="1" fill="none" fill-rule="evenodd" sketch:type="MSPage">
        <g id="Landscape-Retina" sketch:type="MSArtboardGroup" transform="translate(-1140.000000, -622.000000)" fill="#FFFFFF">
            <g id="radia" sketch:type="MSLayerGroup" transform="translate(1140.000000, 622.000000)">
                <path d="M96.2493794,92.9250412 C91.7823794,86.4900412 70.9663794,56.0480412 70.9663794,56.0480412 C77.0853794,53.6880412 81.8883794,50.1700412 85.3783794,45.5000412 C88.8663794,40.8300412 90.6123794,35.6510412 90.6123794,29.9600412 C90.6123794,25.6680412 89.7783794,21.7470412 88.1163794,18.2050412 C86.4503794,14.6620412 84.0343794,11.6020412 80.8703794,9.02504119 C77.7023794,6.44904119 73.8653794,4.46304119 69.3553794,3.06704119 C54.3313794,-1.58595881 32.9463794,1.08904119 17.3213794,1.02704119 C12.1973794,1.00604119 8.55537941,0.902041189 3.71237941,0.230041189 C2.95037941,0.124041189 1.51137941,-0.339958811 0.712379414,0.460041189 C-0.277620586,1.45004119 -0.152620586,2.38904119 0.578379414,3.48304119 C2.57137941,6.47004119 3.99137941,8.56204119 5.95837941,11.5300412 C7.97737941,14.5800412 11.5483794,15.0910412 14.8783794,15.3220412 C19.3983794,15.6350412 23.9193794,15.6330412 28.4473794,15.5440412 C31.1173794,15.4910412 33.7843794,15.3870412 36.4513794,15.2670412 C42.5243794,14.9910412 48.6803794,14.6440412 54.7183794,15.5680412 C62.7293794,16.7950412 69.3823794,21.9780412 68.6793794,30.7140412 C68.2413794,36.1320412 66.1853794,41.1120412 61.6283794,44.2090412 C55.8693794,48.1210412 48.8443794,48.2790412 42.1403794,48.2790412 C38.2993794,48.2790412 38.0773794,48.1330412 33.9753794,47.7120412 C33.0263794,47.6140412 32.1203794,47.8380412 31.7903794,48.7610412 C31.3853794,49.8910412 31.7023794,50.2200412 32.4973794,51.3800412 C33.1733794,52.3650412 36.6333794,57.5610412 37.6783794,59.0850412 C38.6143794,60.4490412 40.3153794,61.0500412 41.8213794,61.4960412 C51.1583794,64.2600412 56.6873794,70.4520412 61.8873794,78.3560412 C64.5363794,82.3820412 67.0463794,86.4970412 69.7863794,90.4620412 C71.3043794,92.6570412 72.8903794,94.8060412 74.5993794,96.8550412 C78.5663794,101.608041 83.7843794,103.739041 89.6243794,105.310041 C94.2923794,106.566041 99.4353794,106.969041 103.550379,107.059041 C107.872379,107.155041 107.241379,104.406041 105.601379,103.166041 C101.865379,100.341041 99.3513794,97.3960412 96.2493794,92.9250412" id="Imported-Layers" sketch:type="MSShapeGroup"></path>
            </g>
        </g>
    </g>
</svg>

<svg width="107" height="108" viewBox="0 0 107 108" xmlns="http://www.w3.org/2000/svg"><path d="M96.25 92.925c-4.47-6.435-25.285-36.877-25.285-36.877 6.12-2.36 10.922-5.878 14.412-10.548 3.488-4.67 5.234-9.85 5.234-15.54 0-4.292-.833-8.213-2.495-11.755-1.666-3.543-4.082-6.603-7.246-9.18-3.17-2.576-7.006-4.562-11.516-5.958C54.33-1.586 32.944 1.09 17.32 1.027 12.198 1.007 8.556.902 3.713.23c-.762-.106-2.2-.57-3 .23-.99.99-.865 1.93-.134 3.023 1.99 2.987 3.41 5.08 5.378 8.047 2.02 3.05 5.59 3.56 8.92 3.792 4.52.313 9.04.31 13.57.222 2.67-.053 5.336-.157 8.003-.277 6.075-.276 12.23-.623 18.27.3 8.01 1.228 14.663 6.41 13.96 15.147-.438 5.418-2.494 10.398-7.05 13.495-5.76 3.91-12.785 4.07-19.49 4.07-3.84 0-4.062-.148-8.164-.57-.95-.097-1.855.127-2.185 1.05-.404 1.13-.087 1.46.708 2.62.676.984 4.136 6.18 5.18 7.704.937 1.364 2.638 1.965 4.144 2.41C51.16 64.26 56.69 70.45 61.89 78.354c2.65 4.027 5.16 8.142 7.9 12.107 1.516 2.196 3.102 4.345 4.81 6.394 3.967 4.753 9.185 6.884 15.025 8.455 4.668 1.255 9.81 1.66 13.926 1.75 4.323.094 3.69-2.655 2.05-3.895-3.734-2.825-6.25-5.77-9.35-10.24" id="Imported-Layers" fill="#fff" fill-rule="evenodd"/></svg>
